svg/u1f9cd_1f3fb_200d_2642.svg

<svg viewBox="0 0 128 128" xmlns="http://www.w3.org/2000/svg">
  <linearGradient id="arm_1_" gradientTransform="matrix(1 0 0 1 0 2)" gradientUnits="userSpaceOnUse" x1="82.2091" x2="82.2091" y1="49.9331" y2="88.4592">
    <stop offset="0.5993" stop-color="#F9DDBD"/>
    <stop offset="1" stop-color="#FFD29C"/>
  </linearGradient>
  <path id="arm_3_" d="M86.56,90.88c-0.18,0-0.34-0.05-0.46-0.14c-0.53-0.4-0.44-2.61-0.41-3.34 c0.04-1-0.53-2.23-1.08-2.81c-0.28-0.29-0.58-0.44-0.88-0.44h-0.04l-0.11,0.01l-0.13,0.04c-0.67,0.15-0.68,0.98-0.69,1.79 c-0.01,0.56-0.02,1.18-0.2,1.71c-0.1,0.3-0.47,0.31-0.54,0.31c-0.44,0-0.92-0.28-0.94-0.9c0-0.08-0.02-0.18-0.06-0.33 c-0.07-0.35-0.23-1.07-0.15-2.54c0.1-1.76,0.31-3.77,1.11-5.38l0.1-0.19l-5.36-19.3l-2.1-6.87c0.76-0.4,2.6-1.25,4.45-1.25 c2.15,0,3.66,1.14,4.5,3.38c1.38,3.6,2.23,7.95,2.68,13.7c0.35,4.42,0.94,8.1,1.21,8.96c0.08,0.25,0.24,0.76,0.24,0.76 c0.31,1.01,0.43,1.39,1.72,4.1c0.68,1.43,0.41,2.87,0.09,4.54c-0.11,0.56-0.21,1.12-0.29,1.7C89.03,89.66,87.55,90.88,86.56,90.88z" fill="url(#arm_1_)"/>
  <linearGradient id="arm_4_" gradientTransform="matrix(1 0 0 1 0 2)" gradientUnits="userSpaceOnUse" x1="45.7918" x2="45.7918" y1="49.9331" y2="88.4592">
    <stop offset="0.5993" stop-color="#F9DDBD"/>
    <stop offset="1" stop-color="#FFD29C"/>
  </linearGradient>
  <path id="arm_2_" d="M41.44,90.88c-0.99,0-2.47-1.23-2.64-2.48c-0.08-0.59-0.19-1.16-0.29-1.7 c-0.32-1.67-0.59-3.12,0.08-4.55c1.28-2.69,1.41-3.1,1.71-4.07c0.07-0.22,0.14-0.47,0.25-0.78c0.27-0.81,0.86-4.47,1.22-8.96 c0.46-5.76,1.31-10.11,2.67-13.69c0.85-2.24,2.37-3.37,4.51-3.37c1.86,0,3.7,0.85,4.45,1.24l-2.1,6.85l-5.36,19.31l0.1,0.19 c0.81,1.61,1.01,3.62,1.11,5.38c0.07,1.47-0.08,2.19-0.16,2.54c-0.03,0.15-0.05,0.25-0.05,0.33c-0.03,0.62-0.51,0.9-0.94,0.9 c-0.28,0-0.48-0.11-0.54-0.31c-0.18-0.52-0.19-1.15-0.2-1.7c-0.01-0.81-0.03-1.65-0.77-1.82c0,0-0.18-0.02-0.18-0.02 c-0.33,0-0.62,0.15-0.91,0.44c-0.55,0.57-1.12,1.81-1.08,2.8c0.03,0.73,0.12,2.94-0.42,3.35C41.78,90.84,41.62,90.88,41.44,90.88z" fill="url(#arm_4_)"/>
  <path d="M70.72,121.41l-5.15-35.06c-0.15-0.76-0.81-1.27-1.56-1.27s-1.41,0.51-1.55,1.22l-5.17,35.11 l-6.2,0.24l-1.03-46.03h27.88l-1.02,46.03L70.72,121.41z" fill="#7C7C7C"/>
  <g id="shoes_1_">
    <path d="M74.02,124h4.45c0.82-0.02,1.41-0.96,1.17-1.78c-0.74-2.49-2.99-4.32-5.62-4.32 c-2.68,0-4.96,1.9-5.66,4.46c-0.22,0.82,0.39,1.63,1.21,1.63h4.45L74.02,124z" fill="#424242"/>
    <path d="M53.98,124h-4.45c-0.82-0.02-1.41-0.96-1.17-1.78c0.74-2.49,2.99-4.32,5.62-4.32 c2.68,0,4.96,1.9,5.66,4.46c0.22,0.82-0.39,1.63-1.21,1.63h-4.45V124z" fill="#424242"/>
  </g>
  <linearGradient id="shirt_1_" gradientTransform="matrix(1 0 0 1 0 2)" gradientUnits="userSpaceOnUse" x1="64.015" x2="64.015" y1="41.571" y2="74.9683">
    <stop offset="0" stop-color="#00BFA5"/>
    <stop offset="0.7047" stop-color="#00B29A"/>
    <stop offset="1" stop-color="#00AB94"/>
  </linearGradient>
  <path id="shirt_2_" d="M73.67,44.87c-2.41-0.64-5.58-1.06-9.54-1.06h-0.08h-0.08 c-3.96,0-7.18,0.42-9.57,1.06c-7.55,2.01-9.46,6.56-11.71,12.65l7.37,3.2V78h28V60.72l7.28-3.2C83.09,51.43,81.22,46.88,73.67,44.87 z" fill="url(#shirt_1_)"/>
  <path id="neck_4_" d="M64,40.72h-5v5.3c0,2.4,2.03,4.34,4.54,4.34h0.91c2.51,0,4.54-1.94,4.54-4.34v-5.3H64z" fill="#EDC391"/>
  <path id="ears" d="M75.97,24.34h-3.23H55.26h-3.23c-2.58,0-4.69,2.25-4.69,5s2.11,5,4.69,5h3.23h17.49h3.23 c2.58,0,4.69-2.25,4.69-5S78.56,24.34,75.97,24.34z" fill="#EDC391"/>
  <path id="head" d="M64,6.66L64,6.66L64,6.66c-7.62,0-14.69,8.15-14.69,19.89c0,11.67,7.28,17.44,14.69,17.44 s14.69-5.77,14.69-17.44C78.69,14.81,71.62,6.66,64,6.66z" fill="#F9DDBD"/>
  <g id="hairGroup_3_">
    <path id="hair_5_" d="M64.01,4.01L64.01,4.01C64.01,4.01,64,4.01,64.01,4.01c-0.01,0-0.01,0-0.01,0l0,0 c-19.47,0.1-15.48,22.34-15.48,22.34s1.05,3.85,1.05,3.77c0,0,2.31-8.61,3.19-10.95c0.44-1.18,1.67-1.87,2.91-1.64 c1.91,0.34,4.95,0.77,8.3,0.77c0.01,0,0.02,0,0.04,0c0.01,0,0.02,0,0.04,0c3.35,0,6.39-0.43,8.3-0.77 c1.24-0.23,2.47,0.46,2.91,1.64c0.88,2.34,3.18,10.95,3.18,10.95c0,0.08,1.06-3.77,1.06-3.77S83.48,4.11,64.01,4.01z" fill="#312D2D"/>
    <radialGradient id="hairHighlights_1_" cx="64.0008" cy="20.887" gradientTransform="matrix(1 0 0 1.1282 0 -0.8431)" gradientUnits="userSpaceOnUse" r="16.3617">
      <stop offset="0.7945" stop-color="#454140" stop-opacity="0"/>
      <stop offset="1" stop-color="#454140"/>
    </radialGradient>
    <path id="hairHighlights" d="M79.49,26.35c0,0,3.99-22.24-15.48-22.34l0,0c0,0,0,0-0.01,0h0 c0,0,0,0-0.01,0l0,0c-0.3,0-0.6,0.01-0.89,0.02c-0.58,0.03-1.14,0.07-1.68,0.13c-0.01,0-0.01,0-0.02,0 c-0.04,0.01-0.08,0.01-0.11,0.01C44.91,6.24,48.51,26.35,48.51,26.35s1.05,3.85,1.05,3.77c0,0,2.31-8.61,3.19-10.95 c0.44-1.18,1.67-1.87,2.91-1.64c1.91,0.34,4.95,0.77,8.3,0.77c0.01,0,0.02,0,0.04,0c0.01,0,0.02,0,0.04,0 c3.35,0,6.39-0.43,8.3-0.77c1.24-0.23,2.47,0.46,2.91,1.64c0.88,2.34,3.18,10.95,3.18,10.95C78.42,30.2,79.49,26.35,79.49,26.35z" fill="url(#hairHighlights_1_)"/>
  </g>
  <path id="mouth_4_" d="M67.69,35.99c-1.4,0.83-5.97,0.83-7.37,0c-0.8-0.48-1.62,0.25-1.29,0.98 c0.33,0.72,2.82,2.38,4.98,2.38c2.16,0,4.62-1.66,4.95-2.38C69.3,36.24,68.49,35.51,67.69,35.99z" fill="#444444"/>
  <path id="nose_4_" d="M65.69,32.4c-0.05-0.02-0.09-0.03-0.14-0.04h-3.1c-0.05,0.01-0.1,0.02-0.14,0.04 c-0.28,0.11-0.44,0.4-0.3,0.72S62.76,34.3,64,34.3c1.24,0,1.86-0.87,1.99-1.18C66.13,32.81,65.97,32.52,65.69,32.4z" fill="#DBA689"/>
  <g id="eyes_4_">
    <ellipse cx="56.8" cy="28.33" fill="#312D2D" rx="2.16" ry="2.24"/>
    <ellipse cx="71.2" cy="28.33" fill="#312D2D" rx="2.16" ry="2.24"/>
  </g>
  <g id="eyebrows_4_">
    <path d="M68,24.32c0.41-0.54,1.36-1.34,3.21-1.34s2.8,0.79,3.21,1.34c0.18,0.24,0.14,0.52,0.01,0.69 c-0.12,0.16-0.46,0.3-0.84,0.17c-0.38-0.13-1.13-0.51-2.37-0.52c-1.25,0.01-1.99,0.39-2.37,0.52c-0.38,0.13-0.73-0.01-0.84-0.17 C67.86,24.83,67.82,24.56,68,24.32z" fill="#454140"/>
    <path d="M53.59,24.32c0.41-0.54,1.36-1.34,3.21-1.34s2.8,0.79,3.21,1.34c0.18,0.24,0.14,0.52,0.01,0.69 c-0.12,0.16-0.46,0.3-0.84,0.17c-0.38-0.13-1.13-0.51-2.37-0.52c-1.25,0.01-1.99,0.39-2.37,0.52c-0.38,0.13-0.73-0.01-0.84-0.17 C53.45,24.83,53.41,24.56,53.59,24.32z" fill="#454140"/>
  </g>
</svg>

<svg viewBox="0 0 128 128" xmlns="http://www.w3.org/2000/svg">
  <defs>
    <linearGradient id="arm_1_" gradientUnits="userSpaceOnUse" x1="82.2091" x2="82.2091" y1="51.9331" y2="90.4592">
      <stop offset="0.5993" stop-color="#F9DDBD"/>
      <stop offset="1" stop-color="#FFD29C"/>
    </linearGradient>
    <linearGradient id="arm_4_" gradientUnits="userSpaceOnUse" x1="45.7918" x2="45.7918" y1="51.9331" y2="90.4592">
      <stop offset="0.5993" stop-color="#F9DDBD"/>
      <stop offset="1" stop-color="#FFD29C"/>
    </linearGradient>
    <linearGradient id="shirt_1_" gradientUnits="userSpaceOnUse" x1="64.015" x2="64.015" y1="43.571" y2="76.9683">
      <stop offset="0" stop-color="#00BFA5"/>
      <stop offset="0.7047" stop-color="#00B29A"/>
      <stop offset="1" stop-color="#00AB94"/>
    </linearGradient>
    <radialGradient id="hairHighlights_1_" cx="64.0008" cy="20.139703" gradientTransform="matrix(1 0 0 1.1282 0 0)" gradientUnits="userSpaceOnUse" r="16.3617">
      <stop offset="0.7945" stop-color="#454140" stop-opacity="0"/>
      <stop offset="1" stop-color="#454140"/>
    </radialGradient>
  </defs>
  <path id="arm_3_" d="M86.56,90.88 C86.38,90.88 86.22,90.83 86.1,90.74 C85.57,90.34 85.66,88.13 85.69,87.4 C85.73,86.4 85.16,85.17 84.61,84.59 C84.33,84.3 84.03,84.15 83.73,84.15 L83.69,84.15 L83.58,84.16 L83.45,84.2 C82.78,84.35 82.77,85.18 82.76,85.99 C82.75,86.55 82.74,87.17 82.56,87.7 C82.46,88 82.09,88.01 82.02,88.01 C81.58,88.01 81.1,87.73 81.08,87.11 C81.08,87.03 81.06,86.93 81.02,86.78 C80.95,86.43 80.79,85.71 80.87,84.24 C80.97,82.48 81.18,80.47 81.98,78.86 L82.08,78.67 L76.72,59.37 L74.62,52.5 C75.38,52.1 77.22,51.25 79.07,51.25 C81.22,51.25 82.73,52.39 83.57,54.63 C84.95,58.23 85.8,62.58 86.25,68.33 C86.6,72.75 87.19,76.43 87.46,77.29 C87.54,77.54 87.7,78.05 87.7,78.05 C88.01,79.06 88.13,79.44 89.42,82.15 C90.1,83.58 89.83,85.02 89.51,86.69 C89.4,87.25 89.3,87.81 89.22,88.39 C89.03,89.66 87.55,90.88 86.56,90.88 Z" fill="url(#arm_1_)"/>
  <path id="arm_2_" d="M41.44,90.88 C40.45,90.88 38.97,89.65 38.8,88.4 C38.72,87.81 38.61,87.24 38.51,86.7 C38.19,85.03 37.92,83.58 38.59,82.15 C39.87,79.46 40,79.05 40.3,78.08 C40.37,77.86 40.44,77.61 40.55,77.3 C40.82,76.49 41.41,72.83 41.77,68.34 C42.23,62.58 43.08,58.23 44.44,54.65 C45.29,52.41 46.81,51.28 48.95,51.28 C50.81,51.28 52.65,52.13 53.4,52.52 L51.3,59.37 L45.94,78.68 L46.04,78.87 C46.85,80.48 47.05,82.49 47.15,84.25 C47.22,85.72 47.07,86.44 46.99,86.79 C46.96,86.94 46.94,87.04 46.94,87.12 C46.91,87.74 46.43,88.02 46,88.02 C45.72,88.02 45.52,87.91 45.46,87.71 C45.28,87.19 45.27,86.56 45.26,86.01 C45.25,85.2 45.23,84.36 44.49,84.19 C44.49,84.19 44.31,84.17 44.31,84.17 C43.98,84.17 43.69,84.32 43.4,84.61 C42.85,85.18 42.28,86.42 42.32,87.41 C42.35,88.14 42.44,90.35 41.9,90.76 C41.78,90.84 41.62,90.88 41.44,90.88 Z" fill="url(#arm_4_)"/>
  <path d="M70.72,121.41 L65.57,86.35 C65.42,85.59 64.76,85.08 64.01,85.08 C63.26,85.08 62.6,85.59 62.46,86.3 L57.29,121.41 L51.09,121.65 L50.06,75.62 L77.94,75.62 L76.92,121.65 L70.72,121.41 Z" fill="#7C7C7C"/>
  <path d="M74.02,124 L78.47,124 C79.29,123.98 79.88,123.04 79.64,122.22 C78.9,119.73 76.65,117.9 74.02,117.9 C71.34,117.9 69.06,119.8 68.36,122.36 C68.14,123.18 68.75,123.99 69.57,123.99 L74.02,123.99 L74.02,124 Z" fill="#424242"/>
  <path d="M53.98,124 L49.53,124 C48.71,123.98 48.12,123.04 48.36,122.22 C49.1,119.73 51.35,117.9 53.98,117.9 C56.66,117.9 58.94,119.8 59.64,122.36 C59.86,123.18 59.25,123.99 58.43,123.99 L53.98,123.99 L53.98,124 Z" fill="#424242"/>
  <path id="shirt_2_" d="M73.67,44.87 C71.26,44.23 68.09,43.81 64.13,43.81 L64.05,43.81 L63.97,43.81 C60.01,43.81 56.79,44.23 54.4,44.87 C46.85,46.88 44.94,51.43 42.69,57.52 L50.06,60.72 L50.06,78 L78.06,78 L78.06,60.72 L85.34,57.52 C83.09,51.43 81.22,46.88 73.67,44.87 Z" fill="url(#shirt_1_)"/>
  <path id="neck_4_" d="M64,40.72 L59,40.72 L59,46.02 C59,48.42 61.03,50.36 63.54,50.36 L64.45,50.36 C66.96,50.36 68.99,48.42 68.99,46.02 L68.99,40.72 L64,40.72 Z" fill="#EDC391"/>
  <path id="ears" d="M75.97,24.34 L72.74,24.34 L55.26,24.34 L52.03,24.34 C49.45,24.34 47.34,26.59 47.34,29.34 C47.34,32.09 49.45,34.34 52.03,34.34 L55.26,34.34 L72.75,34.34 L75.98,34.34 C78.56,34.34 80.67,32.09 80.67,29.34 C80.67,26.59 78.56,24.34 75.97,24.34 Z" fill="#EDC391"/>
  <path id="head" d="M64,6.66 L64,6.66 L64,6.66 C56.38,6.66 49.31,14.81 49.31,26.55 C49.31,38.22 56.59,43.99 64,43.99 C71.41,43.99 78.69,38.22 78.69,26.55 C78.69,14.81 71.62,6.66 64,6.66 Z" fill="#F9DDBD"/>
  <path id="hair_5_" d="M64.01,4.01 L64.01,4.01 C64.01,4.01 64,4.01 64.01,4.01 C64,4.01 64,4.01 64,4.01 L64,4.01 C44.53,4.11 48.52,26.35 48.52,26.35 C48.52,26.35 49.57,30.2 49.57,30.12 C49.57,30.12 51.88,21.51 52.76,19.17 C53.2,17.99 54.43,17.3 55.67,17.53 C57.58,17.87 60.62,18.3 63.97,18.3 C63.98,18.3 63.99,18.3 64.01,18.3 C64.02,18.3 64.03,18.3 64.05,18.3 C67.4,18.3 70.44,17.87 72.35,17.53 C73.59,17.3 74.82,17.99 75.26,19.17 C76.14,21.51 78.44,30.12 78.44,30.12 C78.44,30.2 79.5,26.35 79.5,26.35 C79.5,26.35 83.48,4.11 64.01,4.01 Z" fill="#312D2D"/>
  <path id="hairHighlights" d="M79.49,26.35 C79.49,26.35 83.48,4.11 64.01,4.01 L64.01,4.01 C64.01,4.01 64.01,4.01 64,4.01 L64,4.01 C64,4.01 64,4.01 63.99,4.01 L63.99,4.01 C63.69,4.01 63.39,4.02 63.1,4.03 C62.52,4.06 61.96,4.1 61.42,4.16 C61.41,4.16 61.41,4.16 61.4,4.16 C61.36,4.17 61.32,4.17 61.29,4.17 C44.91,6.24 48.51,26.35 48.51,26.35 C48.51,26.35 49.56,30.2 49.56,30.12 C49.56,30.12 51.87,21.51 52.75,19.17 C53.19,17.99 54.42,17.3 55.66,17.53 C57.57,17.87 60.61,18.3 63.96,18.3 C63.97,18.3 63.98,18.3 64,18.3 C64.01,18.3 64.02,18.3 64.04,18.3 C67.39,18.3 70.43,17.87 72.34,17.53 C73.58,17.3 74.81,17.99 75.25,19.17 C76.13,21.51 78.43,30.12 78.43,30.12 C78.42,30.2 79.49,26.35 79.49,26.35 Z" fill="url(#hairHighlights_1_)"/>
  <path id="mouth_4_" d="M67.69,35.99 C66.29,36.82 61.72,36.82 60.32,35.99 C59.52,35.51 58.7,36.24 59.03,36.97 C59.36,37.69 61.85,39.35 64.01,39.35 C66.17,39.35 68.63,37.69 68.96,36.97 C69.3,36.24 68.49,35.51 67.69,35.99 Z" fill="#444444"/>
  <path id="nose_4_" d="M65.69,32.4 C65.64,32.38 65.6,32.37 65.55,32.36 L62.45,32.36 C62.4,32.37 62.35,32.38 62.31,32.4 C62.03,32.51 61.87,32.8 62.01,33.12 C62.15,33.44 62.76,34.3 64,34.3 C65.24,34.3 65.86,33.43 65.99,33.12 C66.13,32.81 65.97,32.52 65.69,32.4 Z" fill="#DBA689"/>
  <path d="M58.96,28.33 A2.16 2.24 0 1 1 54.64,28.33 A2.16 2.24 0 1 1 58.96,28.33 Z" fill="#312D2D"/>
  <path d="M73.36,28.33 A2.16 2.24 0 1 1 69.04,28.33 A2.16 2.24 0 1 1 73.36,28.33 Z" fill="#312D2D"/>
  <path d="M68,24.32 C68.41,23.78 69.36,22.98 71.21,22.98 C73.06,22.98 74.01,23.77 74.42,24.32 C74.6,24.56 74.56,24.84 74.43,25.01 C74.31,25.17 73.97,25.31 73.59,25.18 C73.21,25.05 72.46,24.67 71.22,24.66 C69.97,24.67 69.23,25.05 68.85,25.18 C68.47,25.31 68.12,25.17 68.01,25.01 C67.86,24.83 67.82,24.56 68,24.32 Z" fill="#454140"/>
  <path d="M53.59,24.32 C54,23.78 54.95,22.98 56.8,22.98 C58.65,22.98 59.6,23.77 60.01,24.32 C60.19,24.56 60.15,24.84 60.02,25.01 C59.9,25.17 59.56,25.31 59.18,25.18 C58.8,25.05 58.05,24.67 56.81,24.66 C55.56,24.67 54.82,25.05 54.44,25.18 C54.06,25.31 53.71,25.17 53.6,25.01 C53.45,24.83 53.41,24.56 53.59,24.32 Z" fill="#454140"/>
</svg>
